X:251
T:Sean Sa Cheo
R:reel
M:4/4
L:1/8
K:Amix
|e2dg eABd|e2Ae dGBd|e2dg eABA|B2gd BGBd:|:
cA~A2 cABd|cA~A2 dGBd|cA~A2 eAcA|B2gd BGBd|
cA~A2 cABd|cA~A2 dGBd|afge fded|B2gd BGBg|:
fedg eABd|edeg dGBg|fedg eABA|1B2gd BGBg:|2B2gd BGBd:|

